packages/core/assets/Icons/arrow_alt_right.svg

<svg viewBox="0 0 20 20" fill="none" xmlns="http://www.w3.org/2000/svg">
<path d="M15.1458 10.8333H2.49996C2.26385 10.8333 2.06593 10.7535 1.90621 10.5937C1.74649 10.434 1.66663 10.2361 1.66663 9.99998C1.66663 9.76387 1.74649 9.56595 1.90621 9.40623C2.06593 9.24651 2.26385 9.16665 2.49996 9.16665H15.1458L11.9166 5.91665C11.7638 5.76387 11.684 5.5729 11.677 5.34373C11.6701 5.11456 11.75 4.91665 11.9166 4.74998C12.0694 4.5972 12.2638 4.52081 12.5 4.52081C12.7361 4.52081 12.9305 4.5972 13.0833 4.74998L17.75 9.41665C17.8333 9.49998 17.8923 9.59026 17.927 9.68748C17.9618 9.7847 17.9791 9.88887 17.9791 9.99998C17.9791 10.1111 17.9618 10.2153 17.927 10.3125C17.8923 10.4097 17.8333 10.5 17.75 10.5833L13.0833 15.25C12.9305 15.4028 12.7395 15.4791 12.5104 15.4791C12.2812 15.4791 12.0833 15.4028 11.9166 15.25C11.75 15.0833 11.6666 14.8854 11.6666 14.6562C11.6666 14.4271 11.75 14.2291 11.9166 14.0625L15.1458 10.8333Z" fill="currentColor"/>
</svg>

<svg xmlns="http://www.w3.org/2000/svg" width="20" height="20" fill="none" viewBox="0 0 20 20">
  <path fill="#201F1F" d="M15.146 10.833H2.5a.806.806 0 0 1-.594-.24.806.806 0 0 1-.24-.593c0-.236.08-.434.24-.594.16-.16.358-.24.594-.24h12.646l-3.23-3.25a.814.814 0 0 1-.239-.572.776.776 0 0 1 .24-.594.79.79 0 0 1 .583-.23.79.79 0 0 1 .583.23l4.667 4.667a.73.73 0 0 1 .177.27.92.92 0 0 1 .052.313.92.92 0 0 1-.052.313.73.73 0 0 1-.177.27l-4.667 4.667a.777.777 0 0 1-.573.23.849.849 0 0 1-.593-.23.812.812 0 0 1-.25-.594c0-.229.083-.427.25-.594l3.229-3.229Z"/>
</svg>
